src/section/s3/hand-bg.svg

<svg width="375" height="667" viewBox="0 0 375 667" fill="none" xmlns="http://www.w3.org/2000/svg">
<g clip-path="url(#clip0_50_1120)">
<rect width="375" height="711.5" fill="#93003B" fill-opacity="0.4"/>
<line x1="42.5" y1="339" x2="332.5" y2="339" stroke="white"/>
<path d="M149.04 320.524L149.148 320.872H159.684C159.852 320.872 159.984 320.812 160.008 320.68C159.504 320.236 158.664 319.588 158.664 319.588L157.92 320.524H149.04ZM152.448 323.632L152.544 323.98H158.784C158.952 323.98 159.084 323.92 159.108 323.788C158.628 323.356 157.824 322.756 157.824 322.756L157.116 323.632H152.448ZM150.936 328.18L151.032 328.516H159.708C159.876 328.516 160.008 328.456 160.044 328.336C159.528 327.88 158.676 327.256 158.676 327.256L157.932 328.18H150.936ZM152.856 317.872C152.532 321.316 151.524 325.6 148.836 328.324L148.98 328.432C152.436 325.924 153.588 321.748 154.14 318.4C154.512 318.364 154.608 318.268 154.644 318.1L152.856 317.872ZM154.716 323.632V328.3H155.916V323.632H154.716ZM162.108 320.608L162.216 320.956H172.956C173.136 320.956 173.256 320.896 173.292 320.764C172.776 320.32 171.924 319.672 171.924 319.672L171.18 320.608H162.108ZM166.368 317.86C165.888 320.704 164.652 324.1 162.072 326.176L162.192 326.296C165.42 324.484 166.872 321.28 167.604 318.532C167.94 318.52 168.036 318.424 168.084 318.268L166.368 317.86ZM164.928 323.728V329.008H165.132C165.72 329.008 166.092 328.792 166.092 328.72V324.076H170.652V328.924H170.856C171.456 328.924 171.852 328.696 171.852 328.624V324.16C172.128 324.112 172.248 324.04 172.32 323.932L171.192 323.056L170.604 323.728H166.224L164.928 323.212V323.728ZM165.552 327.592V327.928H171.264V327.592H165.552ZM180.528 324.448L180.516 324.64C181.716 324.76 182.832 325.096 183.336 325.348C184.284 325.396 184.188 323.572 180.528 324.448ZM180.612 326.224L181.116 327.376C181.236 327.352 181.344 327.244 181.404 327.088C182.676 326.536 183.624 326.08 184.272 325.768L184.248 325.6C182.748 325.9 181.26 326.152 180.612 326.224ZM184.356 323.188H180.432V323.536H184.356V323.188ZM179.664 323.068V324.568C179.664 325.972 179.556 327.604 178.512 328.924L178.632 329.056C180.576 327.82 180.756 325.876 180.756 324.568V323.188H180.936L179.664 322.696V323.068ZM181.884 319.54V321.916H182.784V319.972H182.94L181.884 319.54ZM184.284 319.972H182.304V320.32H184.284V319.972ZM185.088 321.76H185.22C185.16 322.132 185.004 322.852 184.932 323.2L185.088 323.272C185.4 323.032 185.928 322.576 186.204 322.3C186.444 322.288 186.576 322.264 186.66 322.168L185.652 321.196L185.088 321.76ZM179.28 321.16L179.112 321.148C179.04 321.916 178.74 322.432 178.332 322.648C177.408 323.86 180.24 324.4 179.28 321.16ZM179.868 318.1V321.904H180.864V318.904H183.912V321.904H184.944V319.012C185.244 318.964 185.388 318.916 185.484 318.784L184.272 317.932L183.78 318.556H180.996L179.868 318.1ZM183.84 323.188H183.96V327.496C183.96 327.664 183.9 327.736 183.696 327.736C183.468 327.736 182.34 327.652 182.34 327.652V327.832C182.868 327.916 183.132 328.036 183.312 328.216C183.468 328.384 183.528 328.648 183.552 328.996C184.872 328.876 185.028 328.408 185.028 327.628V323.704C185.268 323.656 185.436 323.572 185.508 323.476L184.344 322.6L183.84 323.188ZM185.472 321.76H179.22V322.108H185.472V321.76ZM175.908 325.504C175.776 325.504 175.38 325.504 175.38 325.504V325.756C175.632 325.78 175.824 325.816 175.98 325.936C176.256 326.116 176.316 327.172 176.124 328.42C176.184 328.828 176.4 329.032 176.628 329.032C177.12 329.032 177.444 328.672 177.468 328.108C177.504 327.076 177.084 326.572 177.072 325.972C177.06 325.684 177.144 325.288 177.24 324.904C177.408 324.292 178.284 321.544 178.752 320.08L178.56 320.02C176.46 324.832 176.46 324.832 176.232 325.252C176.112 325.504 176.064 325.504 175.908 325.504ZM175.38 320.776L175.272 320.872C175.68 321.22 176.16 321.82 176.28 322.372C177.312 323.068 178.188 321.076 175.38 320.776ZM176.1 317.932L175.992 318.028C176.448 318.424 176.988 319.096 177.144 319.708C178.224 320.416 179.112 318.34 176.1 317.932ZM188.52 320.152L188.616 320.5H194.616C194.784 320.5 194.904 320.44 194.94 320.308C194.508 319.912 193.812 319.396 193.812 319.396L193.2 320.152H188.52ZM188.7 325.792L188.796 326.14H194.28C194.448 326.14 194.556 326.08 194.592 325.948C194.184 325.588 193.536 325.084 193.536 325.084L192.972 325.792H188.7ZM188.544 327.496L189.072 328.9C189.204 328.876 189.336 328.78 189.408 328.624C191.784 327.976 193.44 327.436 194.604 327.028L194.58 326.848C192.036 327.16 189.576 327.436 188.544 327.496ZM189.492 322.864V323.212H193.692V322.864H189.492ZM189.492 324.34V324.676H193.692V324.34H189.492ZM193.548 317.848C192.42 318.28 190.26 318.856 188.568 319.12L188.604 319.324C190.428 319.3 192.552 319.096 193.932 318.892C194.232 319.024 194.484 319.024 194.604 318.916L193.548 317.848ZM191.064 318.94V327.712H191.232C191.736 327.712 192.072 327.484 192.072 327.4V318.736L191.064 318.94ZM188.952 321.4V325.18H189.12C189.624 325.18 189.936 324.988 189.936 324.916V321.748H193.248V324.964H193.428C193.932 324.964 194.28 324.76 194.28 324.7V321.82C194.532 321.772 194.652 321.7 194.724 321.604L193.704 320.836L193.212 321.4H190.068L188.952 320.956V321.4ZM194.508 320.848L194.616 321.196H198.612V320.848H194.508ZM195.804 318.016C195.804 323.08 196.08 326.476 193.272 328.864L193.416 329.056C197.1 326.908 196.86 323.5 196.908 318.508C197.196 318.46 197.316 318.352 197.352 318.172L195.804 318.016ZM198.216 320.848C198.156 325.048 198.024 327.112 197.652 327.496C197.532 327.604 197.436 327.64 197.232 327.64C197.004 327.64 196.404 327.592 196.02 327.556V327.748C196.416 327.832 196.764 327.976 196.92 328.132C197.064 328.3 197.1 328.564 197.1 328.924C197.64 328.924 198.132 328.756 198.48 328.372C199.044 327.748 199.212 325.936 199.284 321.364C199.548 321.34 199.704 321.256 199.776 321.16L198.684 320.212L198.084 320.848H198.216ZM203.808 318.976H201.696L201.804 319.324H203.808V318.976ZM207.3 318.352L206.844 318.976H205.488L205.584 319.324H207.84C208.008 319.324 208.128 319.264 208.152 319.132C207.84 318.796 207.3 318.352 207.3 318.352ZM206.616 317.944L205.248 317.812V320.14H205.428C205.8 320.14 206.244 319.96 206.244 319.876V318.22C206.496 318.196 206.592 318.088 206.616 317.944ZM204.732 317.956L203.364 317.824V320.164H203.544C203.916 320.164 204.348 319.996 204.348 319.912V318.232C204.612 318.196 204.708 318.1 204.732 317.956ZM204.612 322.504L204.492 322.564C204.66 322.84 204.864 323.308 204.888 323.692C205.644 324.34 206.652 322.96 204.612 322.504ZM206.568 320.596H206.664V322.696H206.796C207.048 322.696 207.456 322.528 207.468 322.456V321.016C207.648 320.992 207.804 320.908 207.864 320.836L206.976 320.164L206.568 320.596ZM205.092 320.188V322.768H205.224C205.632 322.768 205.884 322.564 205.884 322.504V320.596H206.04L205.092 320.188ZM207.048 322.024H205.452V322.372H207.048V322.024ZM207.048 320.596H205.452V320.944H207.048V320.596ZM203.64 320.596H203.736V322.744H203.868C204.12 322.744 204.528 322.576 204.528 322.504V321.016C204.708 320.992 204.864 320.908 204.912 320.836L204.048 320.176L203.64 320.596ZM202.164 320.2V322.888H202.296C202.704 322.888 202.956 322.696 202.956 322.636V320.596H203.112L202.164 320.2ZM204.288 323.02L202.992 322.6C202.704 323.86 202.188 325.144 201.672 325.96L201.84 326.08C202.62 325.42 203.328 324.388 203.832 323.248C204.096 323.26 204.24 323.152 204.288 323.02ZM205.728 323.896H204.768V327.952H205.728V323.896ZM203.604 328.672V323.788H203.76L203.268 323.596L202.62 324.532V328.984H202.788C203.292 328.984 203.604 328.756 203.604 328.672ZM206.928 327.088L206.4 327.748H202.98V328.096H207.612C207.78 328.096 207.888 328.036 207.924 327.904C207.54 327.544 206.928 327.088 206.928 327.088ZM206.652 325.804L206.184 326.392H202.98V326.74H207.24C207.396 326.74 207.516 326.68 207.528 326.548C207.192 326.224 206.652 325.804 206.652 325.804ZM206.652 324.484L206.184 325.072H202.98V325.42H207.228C207.396 325.42 207.504 325.36 207.528 325.228C207.192 324.904 206.652 324.484 206.652 324.484ZM206.88 323.164L206.364 323.788H203.004V324.136H207.504C207.672 324.136 207.792 324.076 207.816 323.944C207.444 323.608 206.88 323.164 206.88 323.164ZM204.12 322.024H202.56V322.372H204.12V322.024ZM204.12 320.596H202.56V320.944H204.12V320.596ZM209.808 324.616H208.764C208.74 326.572 208.464 327.82 206.736 328.852L206.808 329.032C209.052 328.228 209.724 326.92 209.808 324.616ZM211.26 324.604H210.252V327.868C210.252 328.468 210.36 328.708 211.116 328.708H211.632C212.676 328.708 213.024 328.528 213.024 328.156C213.024 327.976 212.976 327.868 212.724 327.736L212.676 326.44H212.544C212.4 326.992 212.268 327.556 212.184 327.7C212.136 327.796 212.1 327.808 212.016 327.82C211.956 327.82 211.86 327.82 211.728 327.82H211.44C211.284 327.82 211.26 327.784 211.26 327.652V324.964C211.26 324.88 211.26 324.736 211.26 324.604ZM208.02 318.052V325.432H208.188C208.716 325.432 209.04 325.216 209.04 325.132V318.856H211.092V325.204H211.272C211.788 325.204 212.16 324.988 212.16 324.928V318.94C212.424 318.904 212.556 318.832 212.64 318.724L211.572 317.884L211.044 318.508H209.184L208.02 318.052ZM211.716 324.52H208.476V324.868H211.716V324.52ZM211.716 322.576H208.476V322.924H211.716V322.576ZM211.716 320.656H208.476V321.004H211.716V320.656ZM215.028 322.036L215.124 322.372H225.72C225.888 322.372 226.02 322.312 226.044 322.18C225.564 321.76 224.784 321.184 224.784 321.184L224.1 322.036H215.028ZM215.916 320.548L216.012 320.884H224.88C225.048 320.884 225.168 320.824 225.204 320.692C224.736 320.284 223.968 319.708 223.968 319.708L223.296 320.548H215.916ZM218.952 323.356H219.108L218.256 323.032L217.824 323.68V329.02H218.028C218.592 329.02 218.952 328.756 218.952 328.66V323.356ZM218.388 324.796V325.144H223.812V324.796H218.388ZM218.4 326.296V326.644H223.824V326.296H218.4ZM218.4 327.832V328.18H223.824V327.832H218.4ZM223.956 317.884C222.084 318.46 218.484 319.096 215.592 319.312L215.616 319.528C218.64 319.564 222.072 319.264 224.316 318.904C224.652 319.06 224.904 319.06 225.024 318.952L223.956 317.884ZM219.408 319.06C218.808 321.82 217.32 324.424 214.896 326.08L215.028 326.224C218.1 324.676 219.876 322.24 220.644 319.252V319.06H219.408ZM218.376 323.356V323.692H223.812V323.356H218.376ZM223.284 323.356V328.996H223.464C223.848 328.996 224.424 328.756 224.436 328.672V323.86C224.64 323.824 224.796 323.728 224.868 323.644L223.728 322.756L223.176 323.356H223.284Z" fill="white"/>
</g>
<defs>
<clipPath id="clip0_50_1120">
<rect width="375" height="667" fill="white"/>
</clipPath>
</defs>
</svg>

<svg viewBox="0 0 375 667" fill="#fff" xmlns="http://www.w3.org/2000/svg">
<line stroke="#fff" x1="42.5" y1="339" x2="332.5" y2="339"/>
<path d="M149,320.5l0.1,0.3h10.5c0.2,0,0.3-0.1,0.3-0.2c-0.5-0.4-1.3-1.1-1.3-1.1l-0.7,0.9H149z M152.4,323.6l0.1,0.3
	h6.2c0.2,0,0.3-0.1,0.3-0.2c-0.5-0.4-1.3-1-1.3-1l-0.7,0.9H152.4z M150.9,328.2l0.1,0.3h8.7c0.2,0,0.3-0.1,0.3-0.2
	c-0.5-0.5-1.4-1.1-1.4-1.1l-0.7,0.9H150.9z M152.9,317.9c-0.3,3.4-1.3,7.7-4,10.5l0.1,0.1c3.5-2.5,4.6-6.7,5.2-10
	c0.4,0,0.5-0.1,0.5-0.3L152.9,317.9z M154.7,323.6v4.7h1.2v-4.7H154.7z M162.1,320.6l0.1,0.3H173c0.2,0,0.3-0.1,0.3-0.2
	c-0.5-0.4-1.4-1.1-1.4-1.1l-0.7,0.9H162.1z M166.4,317.9c-0.5,2.8-1.7,6.2-4.3,8.3l0.1,0.1c3.2-1.8,4.7-5,5.4-7.8
	c0.3,0,0.4-0.1,0.5-0.3L166.4,317.9z M164.9,323.7v5.3h0.2c0.6,0,1-0.2,1-0.3v-4.6h4.6v4.8h0.2c0.6,0,1-0.2,1-0.3v-4.5
	c0.3,0,0.4-0.1,0.5-0.2l-1.1-0.9l-0.6,0.7h-4.4l-1.3-0.5V323.7z M165.6,327.6v0.3h5.7v-0.3H165.6z M180.5,324.4l0,0.2
	c1.2,0.1,2.3,0.5,2.8,0.7C184.3,325.4,184.2,323.6,180.5,324.4z M180.6,326.2l0.5,1.2c0.1,0,0.2-0.1,0.3-0.3c1.3-0.6,2.2-1,2.9-1.3
	l0-0.2C182.7,325.9,181.3,326.2,180.6,326.2z M184.4,323.2h-3.9v0.3h3.9V323.2z M179.7,323.1v1.5c0,1.4-0.1,3-1.2,4.4l0.1,0.1
	c1.9-1.2,2.1-3.2,2.1-4.5v-1.4h0.2l-1.3-0.5V323.1z M181.9,319.5v2.4h0.9V320h0.2L181.9,319.5z M184.3,320h-2v0.3h2V320z
	 M185.1,321.8h0.1c-0.1,0.4-0.2,1.1-0.3,1.4l0.2,0.1c0.3-0.2,0.8-0.7,1.1-1c0.2,0,0.4,0,0.5-0.1l-1-1L185.1,321.8z M179.3,321.2
	l-0.2,0c-0.1,0.8-0.4,1.3-0.8,1.5C177.4,323.9,180.2,324.4,179.3,321.2z M179.9,318.1v3.8h1v-3h3v3h1V319c0.3,0,0.4-0.1,0.5-0.2
	l-1.2-0.9l-0.5,0.6H181L179.9,318.1z M183.8,323.2h0.1v4.3c0,0.2-0.1,0.2-0.3,0.2c-0.2,0-1.4-0.1-1.4-0.1v0.2c0.5,0.1,0.8,0.2,1,0.4
	c0.2,0.2,0.2,0.4,0.2,0.8c1.3-0.1,1.5-0.6,1.5-1.4v-3.9c0.2,0,0.4-0.1,0.5-0.2l-1.2-0.9L183.8,323.2z M185.5,321.8h-6.3v0.3h6.3
	V321.8z M175.9,325.5c-0.1,0-0.5,0-0.5,0v0.3c0.3,0,0.4,0.1,0.6,0.2c0.3,0.2,0.3,1.2,0.1,2.5c0.1,0.4,0.3,0.6,0.5,0.6
	c0.5,0,0.8-0.4,0.8-0.9c0-1-0.4-1.5-0.4-2.1c0-0.3,0.1-0.7,0.2-1.1c0.2-0.6,1-3.4,1.5-4.8l-0.2-0.1c-2.1,4.8-2.1,4.8-2.3,5.2
	C176.1,325.5,176.1,325.5,175.9,325.5z M175.4,320.8l-0.1,0.1c0.4,0.3,0.9,0.9,1,1.5C177.3,323.1,178.2,321.1,175.4,320.8z
	 M176.1,317.9L176,318c0.5,0.4,1,1.1,1.2,1.7C178.2,320.4,179.1,318.3,176.1,317.9z M188.5,320.2l0.1,0.3h6c0.2,0,0.3-0.1,0.3-0.2
	c-0.4-0.4-1.1-0.9-1.1-0.9l-0.6,0.8H188.5z M188.7,325.8l0.1,0.3h5.5c0.2,0,0.3-0.1,0.3-0.2c-0.4-0.4-1.1-0.9-1.1-0.9l-0.6,0.7
	H188.7z M188.5,327.5l0.5,1.4c0.1,0,0.3-0.1,0.3-0.3c2.4-0.6,4-1.2,5.2-1.6l0-0.2C192,327.2,189.6,327.4,188.5,327.5z M189.5,322.9
	v0.3h4.2v-0.3H189.5z M189.5,324.3v0.3h4.2v-0.3H189.5z M193.5,317.8c-1.1,0.4-3.3,1-5,1.3l0,0.2c1.8,0,3.9-0.2,5.3-0.4
	c0.3,0.1,0.6,0.1,0.7,0L193.5,317.8z M191.1,318.9v8.8h0.2c0.5,0,0.8-0.2,0.8-0.3v-8.7L191.1,318.9z M189,321.4v3.8h0.2
	c0.5,0,0.8-0.2,0.8-0.3v-3.2h3.3v3.2h0.2c0.5,0,0.9-0.2,0.9-0.3v-2.9c0.3,0,0.4-0.1,0.4-0.2l-1-0.8l-0.5,0.6h-3.1L189,321V321.4z
	 M194.5,320.8l0.1,0.3h4v-0.3H194.5z M195.8,318c0,5.1,0.3,8.5-2.5,10.8l0.1,0.2c3.7-2.1,3.4-5.6,3.5-10.5c0.3,0,0.4-0.2,0.4-0.3
	L195.8,318z M198.2,320.8c-0.1,4.2-0.2,6.3-0.6,6.6c-0.1,0.1-0.2,0.1-0.4,0.1c-0.2,0-0.8,0-1.2-0.1v0.2c0.4,0.1,0.7,0.2,0.9,0.4
	c0.1,0.2,0.2,0.4,0.2,0.8c0.5,0,1-0.2,1.4-0.6c0.6-0.6,0.7-2.4,0.8-7c0.3,0,0.4-0.1,0.5-0.2l-1.1-0.9l-0.6,0.6H198.2z M203.8,319
	h-2.1l0.1,0.3h2V319z M207.3,318.4l-0.5,0.6h-1.4l0.1,0.3h2.3c0.2,0,0.3-0.1,0.3-0.2C207.8,318.8,207.3,318.4,207.3,318.4z
	 M206.6,317.9l-1.4-0.1v2.3h0.2c0.4,0,0.8-0.2,0.8-0.3v-1.7C206.5,318.2,206.6,318.1,206.6,317.9z M204.7,318l-1.4-0.1v2.3h0.2
	c0.4,0,0.8-0.2,0.8-0.3v-1.7C204.6,318.2,204.7,318.1,204.7,318z M204.6,322.5l-0.1,0.1c0.2,0.3,0.4,0.7,0.4,1.1
	C205.6,324.3,206.7,323,204.6,322.5z M206.6,320.6L206.6,320.6l0.1,2.1h0.1c0.3,0,0.7-0.2,0.7-0.2V321c0.2,0,0.3-0.1,0.4-0.2
	l-0.9-0.7L206.6,320.6z M205.1,320.2v2.6h0.1c0.4,0,0.7-0.2,0.7-0.3v-1.9h0.2L205.1,320.2z M207,322h-1.6v0.3h1.6V322z M207,320.6
	h-1.6v0.3h1.6V320.6z M203.6,320.6L203.6,320.6l0.1,2.1h0.1c0.3,0,0.7-0.2,0.7-0.2V321c0.2,0,0.3-0.1,0.4-0.2l-0.9-0.7L203.6,320.6z
	 M202.2,320.2v2.7h0.1c0.4,0,0.7-0.2,0.7-0.3v-2h0.2L202.2,320.2z M204.3,323l-1.3-0.4c-0.3,1.3-0.8,2.5-1.3,3.4l0.2,0.1
	c0.8-0.7,1.5-1.7,2-2.8C204.1,323.3,204.2,323.2,204.3,323z M205.7,323.9h-1v4.1h1V323.9z M203.6,328.7v-4.9h0.2l-0.5-0.2l-0.6,0.9
	v4.5h0.2C203.3,329,203.6,328.8,203.6,328.7z M206.9,327.1l-0.5,0.7H203v0.3h4.6c0.2,0,0.3-0.1,0.3-0.2
	C207.5,327.5,206.9,327.1,206.9,327.1z M206.7,325.8l-0.5,0.6H203v0.3h4.3c0.2,0,0.3-0.1,0.3-0.2
	C207.2,326.2,206.7,325.8,206.7,325.8z M206.7,324.5l-0.5,0.6H203v0.3h4.2c0.2,0,0.3-0.1,0.3-0.2
	C207.2,324.9,206.7,324.5,206.7,324.5z M206.9,323.2l-0.5,0.6H203v0.3h4.5c0.2,0,0.3-0.1,0.3-0.2
	C207.4,323.6,206.9,323.2,206.9,323.2z M204.1,322h-1.6v0.3h1.6V322z M204.1,320.6h-1.6v0.3h1.6V320.6z M209.8,324.6h-1
	c0,2-0.3,3.2-2,4.2l0.1,0.2C209.1,328.2,209.7,326.9,209.8,324.6z M211.3,324.6h-1v3.3c0,0.6,0.1,0.8,0.9,0.8h0.5
	c1,0,1.4-0.2,1.4-0.6c0-0.2,0-0.3-0.3-0.4l0-1.3h-0.1c-0.1,0.6-0.3,1.1-0.4,1.3c0,0.1-0.1,0.1-0.2,0.1c-0.1,0-0.2,0-0.3,0h-0.3
	c-0.2,0-0.2,0-0.2-0.2V325C211.3,324.9,211.3,324.7,211.3,324.6z M208,318.1v7.4h0.2c0.5,0,0.9-0.2,0.9-0.3v-6.3h2.1v6.3h0.2
	c0.5,0,0.9-0.2,0.9-0.3v-6c0.3,0,0.4-0.1,0.5-0.2l-1.1-0.8l-0.5,0.6h-1.9L208,318.1z M211.7,324.5h-3.2v0.3h3.2V324.5z M211.7,322.6
	h-3.2v0.3h3.2V322.6z M211.7,320.7h-3.2v0.3h3.2V320.7z M215,322l0.1,0.3h10.6c0.2,0,0.3-0.1,0.3-0.2c-0.5-0.4-1.3-1-1.3-1l-0.7,0.9
	H215z M215.9,320.5l0.1,0.3h8.9c0.2,0,0.3-0.1,0.3-0.2c-0.5-0.4-1.2-1-1.2-1l-0.7,0.8H215.9z M219,323.4h0.2l-0.9-0.3l-0.4,0.6v5.3
	h0.2c0.6,0,0.9-0.3,0.9-0.4V323.4z M218.4,324.8v0.3h5.4v-0.3H218.4z M218.4,326.3v0.3h5.4v-0.3H218.4z M218.4,327.8v0.3h5.4v-0.3
	H218.4z M224,317.9c-1.9,0.6-5.5,1.2-8.4,1.4l0,0.2c3,0,6.5-0.3,8.7-0.6c0.3,0.2,0.6,0.2,0.7,0L224,317.9z M219.4,319.1
	c-0.6,2.8-2.1,5.4-4.5,7l0.1,0.1c3.1-1.5,4.8-4,5.6-7v-0.2H219.4z M218.4,323.4v0.3h5.4v-0.3H218.4z M223.3,323.4v5.6h0.2
	c0.4,0,1-0.2,1-0.3v-4.8c0.2,0,0.4-0.1,0.4-0.2l-1.1-0.9l-0.6,0.6H223.3z"/>
</svg>
